!!!COM: Mozart, Wolfgang Amadeus
!!!CDT: 1756/01/27/-1791/12/05/
!!!CNT: German
!!!OTL: Piano Sonata No. 6 in D major
!!!OTP: D&uuml;rnitz
!!!SCT1: K<sup>1</sup> 284
!!!SCT2: K<sup>6</sup> 205b
!!!OMV: 2
!!!OMD: Rondeau en polonaise: Andante
!!!ODT: 1775///
**kern	**kern	**dynam
*staff2	*staff1	*staff1/2
*clefF4	*clefG2	*clefG2
*k[f#c#g#]	*k[f#c#g#]	*k[f#c#g#]
*A:	*A:	*A:
*M3/4	*M3/4	*M3/4
*MM104	*MM104	*MM104
=1-	=1-	=1-
2A 2c#	2a	f
4E 4d	(8.bL	.
.	16g#Jk	.
=2	=2	=2
8A 8c#	8a)	.
(8c#L	(8eL	p
8B#	8d#	.
8c#	8e	.
8Bn	8dn	.
8AJ)	8c#J)	.
=3	=3	=3
2E 2G#	2b	f
4A 4e	(8.cc#L	.
.	16aJk	.
=4	=4	=4
8G# 8e	8dd)	.
(8BL	(8dL	p
8A#	8c#	.
8B	8d	.
8An	8c#	.
8G#J)	8BJ)	.
*clefG2	*	*
=5	=5	=5
4r	4.ee	.
(4c# 4e 4a	.	.
.	(32ff#LLL	f
.	32ee	.
.	32dd	.
.	32cc#JJJ	.
4B) 4e 4g#	8dd'L)	.
.	8dd'J	.
*clefF4	*	*
=6	=6	=6
4r	4.cc#	p
4A 4c# 4e	.	.
.	(32ddLLL	f
.	32cc#	.
.	32b	.
.	32aJJJ	.
4D 4E 4B	8g#'L)	.
.	8g#'J	.
=7	=7	=7
8r	4.a	p
(8C#L	.	.
8c#J)	.	.
8d 8eL	8g# 8bL	.
8c# 8e	8a 8cc#	.
8B 8eJ	8b 8ddJ	.
=8	=8	=8
*	*^	*
8A (8eL	(16dd#LL	8cc#L	.
.	16ee	.	.
8dJ)	16ff#	16ddnL	.
.	16ddJJ)	16bJJ	.
4e	(4cc#	(4a	.
4E	4b)	4g#)	.
*	*v	*v	*
=9	=9	=9
*^	*	*
4ryy	4r	(<[4a	f
4c#	4A	12aL]	.
.	.	12e	.
.	.	12cc#J	.
(8BL	4E	12ddL>	.
.	.	12b	.
8dJ	.	.	.
.	.	12g#J	.
*v	*v	*	*
=10	=10	=10
8A 8c#)	8a)	.
(8c#L	(8eL	p
8B#	8d#	.
8c#	8e	.
8Bn	8dn	.
8AJ)	8c#J)	.
=11	=11	=11
4r	([4b	f
4E 4G#	12bL]	.
.	12e	.
.	12ddJ	.
4A 4e	12cc#L	.
.	12a	.
.	12ff#J	.
=12	=12	=12
.	(32eeqq	.
8r	8dd))	.
(8BL	(8dL	p
8A#	8c#	.
8B	8d	.
8An	8c#	.
8G#J)	8BJ)	.
*clefG2	*	*
=13	=13	=13
4r	[4ee	.
(4c# 4a	16eeLL]	f
.	(16ee#	.
.	16ff#	.
.	16cc#JJ	.
.	(32eenqq	.
4B) 4g#	8dd'L))	p
.	8dd'J	.
*clefF4	*	*
=14	=14	=14
4r	[4cc#	.
4A 4e	16cc#LL]	f
.	(16dd#	.
.	16ee	.
.	16aJJ	.
.	(32aqq	.
4d 4e	8g#'L))	p
.	8g#'J	.
=15	=15	=15
*^	*	*
4ryy	4c# 4e	(16aLL	.
.	.	16b	.
.	.	16cc#	<
.	.	16ddnJJ	.
[2A	(4C#	16eeLL	.
.	.	16ff#	.
.	.	16gg#	.
.	.	16aaJJ	.
.	4D)	16gg#LL	.
.	.	16ff#	.
.	.	16ee	.
.	.	16ddJJ	.
=16	=16	=16	=16
*	*	*^	*
(8AL]	4E	16cc#LL	4ryy	f
.	.	16ee	.	.
8G#J)	.	16dd	.	.
.	.	16bJJ)	.	.
2ryy	8AL	4d (4b	2e	.
.	8EJ	.	.	.
.	4AA	4c# 4a)	.	.
*v	*v	*	*	*
*	*v	*v	*
=17	=17	=17
(16ALL	4.a	p
16e	.	.
16B	.	.
16eJJ	.	.
16c#LL	.	.
16e	.	.
16d	(8g#SL	.
16eJJ	.	.
16c#LL	8a)	.
16e	.	.
16d	(8g#mJ	.
16eJJ	.	.
=18	=18	=18
16c#LL	8aL)	.
16e	.	.
16G#	(8bM	.
16eJJ	.	.
16ALL	8cc#)	.
16e	.	.
16B	(16eeL	.
16eJJ	16ddJ)	.
16ALL	8cc#	.
16e	.	.
16G#	8bJ	.
16eJJ	.	.
=19	=19	=19
16ELL	4.b	.
16e	.	.
16F#	.	.
16eJJ	.	.
16G#LL	.	.
16e	.	.
16F#	(8a#SL	.
16eJJ	.	.
16G#LL	8b)	.
16e	.	.
16F#	(8a#mJ	.
16eJJ	.	.
=20	=20	=20
16G#LL	8bL)	.
16e	.	.
16A	(8cc#m	.
16eJJ	.	.
16BLL	8dd)	.
16e	.	.
16c#	(16ff#L	.
16eJJ	16eeJ)	.
16BLL	(8dd	.
16e	.	.
16A	8cc#J)	.
16eJJ)	.	.
=21	=21	=21
8r	(32cc#LLK	f
.	16.ccc#JJ)	.
8A 8e	4ccc#	p
4A 4e	.	.
.	(32bbLLK	.
.	16.aaJJ)	.
4r	(32gg#LLK	.
.	16.ff#JJ)	.
.	(32ee#LLK	.
.	16.ff#JJ)	.
=22	=22	=22
8r	(32aLLK	f
.	16.aaJJ)	.
8F# 8B 8d#	4aa	p
4F# 4B 4d#	.	.
.	(32gg#LLK	.
.	16.ff#JJ)	.
4r	(32eenLLK	.
.	16.dd#JJ)	.
.	(32cc#LLK	.
.	16.bJJ)	.
=23	=23	=23
4r	(8b	.
.	4ee	.
4G# 4e	.	.
.	8bL	.
4A 4e	8cc#	.
.	8aJ)	.
=24	=24	=24
4r	(8g#	.
.	4b/	.
4B 4d#	.	.
.	8a#L	.
4BB	8an	.
.	8f#J)	.
=25	=25	=25
(16ELL	(16g#LL	.
16B	16b	.
16G#	16cc#	<
16BJJ	16dd#JJ	.
16ELL	16eeLL	.
16B	16ff#	.
16G#	16gg#	.
16BJJ	16aaJJ	.
16ELL	16bbLL	.
16B	16ccc#	.
16G#	16bb	.
16BJJ	16gg#JJ	.
=26	=26	=26
16F#LL	16aaLL	f
16B	16bb	.
16A	16aa	.
16BJJ	16ff#JJ	.
16F#LL	16dd#LL	p
16B	16ee	.
16A	16dd#	.
16BJJ	16bJJ	.
16D#LL	16aLL	.
16B	16b	.
16F#	16a	.
16BJJ)	16f#JJ)	.
=27	=27	=27
(16ELL	(16g#LL	.
16B	16b	.
16G#	16cc#	<
16BJJ	16dd#JJ	.
16ELL	16eeLL	.
16B	16ff#	.
16G#	16gg#	.
16BJJ	16aaJJ	.
16ELL	16bbLL	.
16B	16ccc#	.
16G#	16bb	.
16BJJ	16gg#JJ	.
=28	=28	=28
16F#LL	16aaLL	f
16B	16bb	.
16A	16aa	.
16BJJ	16ff#JJ	.
16F#LL	16dd#LL	p
16B	16ee	.
16A	16dd#	.
16BJJ	16bJJ	.
16D#LL	16aLL	.
16B	16b	.
16F#	16a	.
16BJJ	16f#JJ)	.
=29	=29	=29
4E)	(16g#LL	p
.	16b	.
.	16ee	f
.	16dd#JJ)	.
4A	(16dd#LL	p
.	16cc#	.
.	16aa	f
.	16gg#JJ)	.
4r	(16gg#LL	p
.	16ff#	.
.	16ccc#	f
.	16bbJJ)	.
=30	=30	=30
*	*^	*
8r	8ryy	(16bbLL	.
.	.	16aaJJ)	.
8B 8d#	(16gg#LL	8a	p
.	16ff#JJ)	.	.
8eL	(4ff#	(4a	.
8BJ	.	.	.
4E	4ee)	4g#)	.
*	*v	*v	*
=31	=31	=31
.	(32eeqq	.
4r	2a)	p
4A 4c#	.	.
4E 4dn	(16bLL	.
.	16a	.
.	16b	.
.	16g#JJ	.
=32	=32	=32
8A 8c#	8a)	.
8C# (8c#L	(8e 8eeL	f
8BB# 8B#	8d# 8dd#	.
8C# 8c#	8e 8ee	.
8BBn 8Bn	8dn 8ddn	.
8AA 8AJ)	8c#) 8cc#J	.
=33	=33	=33
.	(32eeqq	.
4r	2b)	p
4G# 4e	.	.
4A 4e	(16cc#LL	.
.	16b	.
.	16cc#	.
.	16aJJ	.
=34	=34	=34
8B 8e	8dd)	.
8BB (8BL	(8d 8ddL	f
8AA# 8A#	8c# 8cc#	.
8BB 8B	8d 8dd	.
8AAn 8An)	8c# 8cc#	.
8GG# 8G#J	8B) 8bJ	.
=35	=35	=35
.	32dd#qLLL	.
.	32eeq	.
.	32ff#qJJJ	.
4r	(2eeTT	f
4C# 4c#	.	.
.	32ff#qq	.
4BB 4B	8ddn)	p
.	8r	.
=36	=36	=36
.	(32bqLLL	.
.	32cc#q	.
.	32ddqJJJ	.
4r	2cc#tt	f
4E 4e	.	.
.	32ddqq	.
4D 4d	8b)	p
.	8r	.
=37	=37	=37
4C# 4c#	(16.aLL	.
.	32bk	.
.	16a	.
.	16g#JJ	.
8r	8aL)	.
8d'L	8g#' 8b'	.
8c#'	8a' 8cc#'	.
8B'J	8b' 8dd'J	.
=38	=38	=38
(8AL	4cc# 4ee	f
8C#J)	.	.
2E	16dd (16ff#LL	.
.	16cc# 16ee	.
.	16b 16dd	.
.	16a 16cc#JJ)	.
.	4g# 4b	p
=39	=39	=39
*^	*	*
4ryy	4r	[4a	f
4c#	4A	16aLL]	.
.	.	(16e	.
.	.	16cc#)	.
.	.	16cc#'JJ	.
(8BL	4E	(16cc#LL>	.
.	.	16dd	.
8dJ	.	16b	.
.	.	16g#JJ	.
*v	*v	*	*
=40	=40	=40
8A 8c#)	8a)	.
(8eL	(8ccc#L	p
8d#	8bb#	.
8e	8ccc#	.
8dn	8bbn	.
8c#J)	8aaJ)	.
=41	=41	=41
4r	[4b	f
4E 4G#	16bLL>]	.
.	(16e	.
.	16dd)	.
.	16dd'JJ	.
4E 4A	(16ddLL	.
.	16cc#	.
.	16ee	.
.	16cc#JJ	.
=42	=42	=42
8E 8G#	8b)	.
(8dL	(8bbL	p
8c#	8aa#	.
8d	8bb	.
8c#	8aan	.
8BJ)	8gg#J)	.
*clefG2	*	*
=43	=43	=43
4r	[4ee	.
4c# 4e 4a	24eeLL]	f
.	24ff#'	.
.	24gg#'JJ	.
.	24aa'LL	.
.	24bb'	.
.	24ccc#'JJ	.
4B 4d 4g#	8ddd	.
.	16r	.
.	16dd	p
*clefF4	*	*
=44	=44	=44
4r	[4cc#	f
4A 4c# 4e	24cc#LL]	.
.	24dd'	.
.	24ee'JJ	.
.	24ff#'LL	.
.	24gg#'	.
.	24aa'JJ	.
4D 4E 4G#	8bb	.
.	16r	.
.	16gg#	p
=45	=45	=45
8r	(16bbLK	.
.	8aa	.
8C# 8E 8A	.	.
.	16eeJk)	.
8r	(16gg#LK	.
.	8ff#	.
8D 8F# 8A	.	.
.	16cc#Jk)	.
8r	(16eeLK	.
.	8dd	.
8F# 8A 8d	.	.
.	16aJk)	.
=46	=46	=46
8r	(16cc#LK	.
.	8b	.
8E 8d	.	.
.	16g#Jk)	.
8AL	(>4d/ (4g#/	.
8EJ	.	.
4AA	8c#/) 8a/)	.
.	8e#	f
=47	=47	=47
!LO:TX:i:t=legato	!	!
16F#LL	4f#	.
16c#	.	.
16A	.	.
16c#JJ	.	.
16F#LL	16r	.
16c#	16cc#'LL	p
16A	16cc#'	.
16c#JJ	16cc#'JJ	.
16F#LL	16cc#'LL	.
16c#	16cc#'	.
16A	16cc#'	.
16c#JJ	16cc#'JJ	.
=48	=48	=48
16E#LL	4cc#t	f
16B	.	.
16G#	.	.
16BJJ	.	.
16E#LL	16r	.
16B	16cc#'LL	p
16G#	16cc#'	.
16BJJ	16cc#'JJ	.
16E#LL	16cc#'LL	.
16B	16cc#'	.
16G#	16cc#'	.
16BJJ	16cc#'JJ	.
=49	=49	=49
16EnLL	4cc#t	f
16A#	.	.
16Gn	.	.
16A#JJ	.	.
16ELL	16r	.
16A#	16cc#'LL	p
16G	16cc#'	.
16A#JJ	16cc#'JJ	.
16ELL	16cc#'LL	.
16A#	16cc#'	.
16G	16cc#'	.
16A#JJ	16cc#'JJ	.
=50	=50	=50
16D#LL	(8.ff#L	f
16B	.	.
16F#	.	.
16BJJ	16dd#Jk	.
16D#LL	4b)	p
16B	.	.
16F#	.	.
16BJJ	.	.
16D#LL	4r	.
16B	.	.
16F#	.	.
16BJJ	.	.
=51	=51	=51
16DnLL	(8.aaL	f
16B#	.	.
16F#	.	.
16B#JJ	16ff#Jk	.
16DLL	4b#)	p
16B#	.	.
16F#	.	.
16B#JJ	.	.
16DLL	8r	.
16B#	.	.
16F#	(8b#	.
16B#JJ	.	.
=52	=52	=52
4C# 4E#	16cc#LL)	.
.	(16c#	.
.	16B#	.
.	16c#JJ	.
4r	16B#LL	.
.	16c#	.
.	16B#	.
.	16c#JJ	.
4r	16B#LL	.
.	16c#	.
.	16B#	.
.	16c#JJ)	.
=53	=53	=53
(16DLL	4.d	f
16A	.	.
16En	.	.
16AJJ	.	.
16F#LL	.	.
16A	.	.
16Gn	(8c#SL	.
16AJJ	.	.
16F#LL	8d)	.
16A	.	.
16G	(8c#mJ	.
16AJJ	.	.
=54	=54	=54
16F#LL	8dL)	.
16A	.	.
16C#	(8eM	.
16AJJ	.	.
16DLL	8f#)	.
16A	.	.
16E	(16aL	.
16AJJ	16gnJ)	.
16DLL	(8f#	.
16A	.	.
16C#	8eJ)	.
16AJJ	.	.
=55	=55	=55
16AALL	4.e	p
16A	.	.
16BB	.	.
16AJJ	.	.
16C#LL	.	.
16A	.	.
16BB	(8d#SL	.
16AJJ	.	.
16C#LL	8e)	.
16A	.	.
16BB	(8d#mJ	.
16AJJ	.	.
=56	=56	=56
16C#LL	8eL)	.
16A	.	.
16D	(8f#M	.
16AJJ	.	.
16ELL	8gn)	.
16A	.	.
16F#	(16bL	.
16AJJ	16aJ)	.
16ELL	(8g	.
16A	.	.
16D	8f#J)	.
16AJJ)	.	.
=57	=57	=57
8r	(32f#LLK	f
.	16.ff#JJ)	.
8D 8F# 8A	4ff#	p
4D 4F# 4A	.	.
.	(32eeLLK	.
.	16.ddJJ)	.
4r	(32cc#LLK	.
.	16.bJJ)	.
.	(32a#LLK	.
.	16.bJJ)	.
=58	=58	=58
8r	(32dLLK	f
.	16.ddJJ)	.
8BB 8E 8G#	4dd	p
4BB 4E 4G#	.	.
.	(32cc#LLK	.
.	16.bJJ)	.
4r	(32anLLK	.
.	16.g#JJ)	.
.	(32f#LLK	.
.	16.eJJ)	.
=59	=59	=59
4r	(8e	.
.	4ee)	.
4C# 4E 4A	.	.
.	(8aL	.
4F# 4A	8aa	.
.	8ddJ)	.
=60	=60	=60
4r	(8cc#	.
.	4ee	.
4E 4G#	.	.
.	8dd#L	.
4EE	8ddn	.
.	8bJ)	.
=61	=61	=61
(16ALL	(16cc#LL	.
16e	16ee	.
16c#	16ff#	<
16eJJ	16gg#JJ	.
16ALL	16aaLL	.
16e	16bb	.
16c#	16ccc#	.
16eJJ	16dddJJ	.
16ALL	16eeeLL	.
16e	16ccc#	.
16c#	16gg#	.
16eJJ	16aaJJ	.
=62	=62	=62
16BLL	16dddLL	f
16e	16bb	.
16d	16ff#	.
16eJJ	16gg#JJ	.
16G#LL	16bbLL	p
16e	16gg#	.
16B	16dd#	.
16eJJ	16eeJJ	.
16ELL	16ff#LL	.
16e	16ddn	.
16G#	16a#	.
16eJJ	16bJJ)	.
=63	=63	=63
16ALL	(16cc#LL	.
16e	16ee	.
16c#	16ff#	<
16eJJ	16gg#JJ	.
16ALL	16aanLL	.
16e	16bb	.
16c#	16ccc#	.
16eJJ	16dddJJ	.
16ALL	16eeeLL	.
16e	16ccc#	.
16c#	16gg#	.
16eJJ	16aaJJ	.
=64	=64	=64
16BLL	16dddLL	f
16e	16bb	.
16d	16ff#	.
16eJJ	16gg#JJ	.
16G#LL	16bbLL	p
16e	16gg#	.
16B	16dd#	.
16eJJ	16eeJJ	.
16ELL	16ff#LL	.
16e	16ddn	.
16G#	16a#	.
16eJJ	16bJJ	.
=65	=65	=65
4A 4c#)	16cc#LL	.
.	16ee	.
.	16aan	f
.	16gg#JJ)	.
4D 4A	(16gg#LL	p
.	16ff#	.
.	16ddd	f
.	16ccc#JJ)	.
4D# 4F#	(16ccc#LL	p
.	16bb)	.
.	(16bb	.
.	16aaJJ)	.
=66	=66	=66
4E 4G#	(16aaLL	.
.	16gg#)	.
.	(16gg#	.
.	16ff#JJ)	.
4F# 4A	(16ff#LL	.
.	16ee)	.
.	(16ee	.
.	16dd#JJ)	.
4r	4r	.
*clefG2	*	*
=67	=67	=67
(>4f# ((4a	(16ff#LL	p
.	16ee)	.
.	(16ee	.
.	16dd#JJ)	.
4g#) 4b))	(16ff#LL	.
.	16ee)	.
.	(16ee	.
.	16ddnJJ)	.
4r	4r	.
*clefF4	*	*
=68	=68	=68
16A (16aLL	4ccn 4aa	f
16Gn 16gn)	.	.
16G (16g	.	.
16Fn 16fnJJ)	.	.
16F (16fLL	4aa 4cccn	.
16E 16e)	.	.
16E (16e	.	.
16D# 16d#JJ)	.	.
4r	4r	.
=69	=69	=69
*^	*	*
(4cn	2E	(<4a ((4dd#	p
4B)	.	4g#) 4ee))	.
4ryy	4r	4r	.
*v	*v	*	*
=70	=70	=70
(16ALL	2aTT	f
16e	.	.
16c#X	.	.
16eJJ	.	.
16ALL	.	.
16e	.	.
16c#	.	.
16eJJ	.	.
16ELL	(32g#LLL	.
.	32e	.
16d	32b	.
.	32g#JJJ	.
16B	32ddnLLL	.
.	32b	.
16dJJ	32a	.
.	32g#JJJ	.
=71	=71	=71
16A 16c#LL)	16aLL)	.
(16c#	(16e	p
16B#	16d#	.
16c#JJ	16eJJ	.
16dnLL	16f#LL	.
16c#	16e	.
16B#	16d#X	.
16c#JJ	16eJJ	.
16BnLL	16dnLL	.
16A	16c#	.
16G#	16B#	.
16AJJ)	16c#JJ)	.
=72	=72	=72
(16ELL	2bnTT	f
16B	.	.
16G#	.	.
16BJJ	.	.
16ELL	.	.
16B	.	.
16G#	.	.
16BJJ	.	.
16ELL	(32cc#LLL	.
.	32a	.
16c#	32ee	.
.	32cc#JJJ	.
16A	32aaLLL	.
.	32ee	.
16c#JJ	32cc#	.
.	32aJJJ	.
=73	=73	=73
16G#LL)	16ddLL)	.
(16B	(16d	p
16A#	16c#	.
16BJJ	16dJJ	.
16c#LL	16eLL	.
16B	16d	.
16A#	16c#	.
16BJJ	16dJJ	.
16AnLL	16c#LL	.
16G#	16B	.
16F#	16A#	.
16G#JJ)	16BJJ)	.
*clefG2	*	*
=74	=74	=74
(16c#LL	[4ee	p
16a	.	.
16e	.	.
16aJJ	.	.
16c#LL	(8.eeSsSL]	f
16a	.	.
16e	.	.
16aJJ	16ff#Jk)	.
16BLL	(8eeL	.
16g#	.	.
16e	8ddnJ)	.
16g#JJ	.	.
=75	=75	=75
16ALL	[4cc#	p
16a	.	.
16e	.	.
16aJJ	.	.
*clefF4	*	*
16ALL	(8.cc#SSsL]	f
16e	.	.
16c#	.	.
16eJJ	16eeJk)	.
16DLL	(8aL	.
16B	.	.
16E	8g#J)	.
16BJJ)	.	.
=76	=76	=76
4C# 4c#	(16.aLL	f
.	32bk	.
.	16.a	.
.	32g#JJk	.
8r	16.aLL)	.
.	(32ek	p
8D (8dL	16.g# 16.b	.
.	32eJJk	.
8C# 8c#	16.a 16.cc#LL	.
.	32ek	.
8BB 8BJ)	16.b 16.dd	.
.	32eJJk)	.
=77	=77	=77
8AA 8AL	[4cc# [4ee	f
8CC# 8C#J	.	.
2EE 2E	16cc#] 16eeLL]	.
.	(32dd#L	p
.	32eeJJJ	.
.	32ff#LLL	.
.	32ee	.
.	32ddn	.
.	32cc#JJJ	.
.	8b)	.
.	8r	.
=78	=78	=78
4AA 4A	(24c#LL	f
.	24a	.
.	24eJJ	.
.	24c#LL	.
.	24a	.
.	24eJJ	.
*	*Xtuplet	*
4CC# 4C#	24c#LL	.
.	24a	.
.	24eJJ	.
.	24c#LL	.
.	24a	.
.	24eJJ	.
4EE 4E	24dLL	.
.	24b	.
.	24eJJ	.
.	24dLL	.
.	24g#	.
.	24eJJ	.
=79	=79	=79
(24ALL	8a')	p
24e	.	.
24c#JJ	.	.
24BLL	16.r	.
24e	.	.
24dJJ	.	.
.	32g#'	.
*Xtuplet	*	*
24ALL	8a'	.
24e	.	.
24c#JJ	.	.
24G#LL	16.r	.
24e	.	.
24BJJ	.	.
.	32b	.
24ALL	8cc#'	.
24e	.	.
24c#JJ	.	.
24ALL	8r	.
24e	.	.
24c#JJ)	.	.
=80	=80	=80
*	*tuplet	*
4GG# 4G#	(24dLL	f
.	24b	.
.	24eJJ	.
.	24dLL	.
.	24b	.
.	24eJJ	.
*	*Xtuplet	*
4EE 4E	24dLL	.
.	24b	.
.	24eJJ	.
.	24dLL	.
.	24g#	.
.	24eJJ	.
4AA 4A	24c#LL	.
.	24a	.
.	24eJJ	.
.	24c#LL	.
.	24cc#	.
.	24aJJ	.
=81	=81	=81
(24G#LL	8b')	p
24e	.	.
24BJJ	.	.
24ALL	16r	.
24e	.	.
.	16a'	.
24c#JJ	.	.
24BLL	8g#'	.
24e	.	.
24dJJ	.	.
24ALL	16r	.
24e	.	.
.	16a'	.
24c#JJ	.	.
24G#LL	8dd'	.
24e	.	.
24BJJ	.	.
24ELL	8r	.
24e	.	.
24G#JJ)	.	.
=82	=82	=82
8C# 8c#	16r	.
.	16ee (16eeeLL	.
8r	16dd# 16ddd#	.
.	16ee 16eeeJJ)	.
8C# 8c#	16r	.
.	16a (16aaLL	.
8r	16g# 16gg#	.
.	16a 16aaJJ)	f
8BB 8B	16r	.
.	16g# (16gg#LL	.
8r	16b 16bb	.
.	16ddn 16dddnJJ)	.
=83	=83	=83
8AA 8A	16r	.
.	16cc# (16ccc#LL	p
8r	16b# 16bb#	.
.	16cc# 16ccc#JJ)	.
8AA 8A	16r	.
.	16ee (16eeeLL	.
8r	16dd# 16ddd#	.
.	16ee 16eeeJJ)	f
8D 8d	16r	.
.	16e (16eeLL	.
8r	16g# 16gg#	.
.	16bn 16bbnJJ)	.
=84	=84	=84
8r	(16.aaTLL	p
.	64gg#LL	.
.	64aaJJJJ	.
8C# 8E 8A	16ccc#LL)	.
.	32r	.
.	32ee'JJk	.
8r	(16.ff#TLL	.
.	64ee#LL	.
.	64ff#JJJJ	.
8D 8F# 8A	16aaLL)	.
.	32r	.
.	32cc#'JJk	.
8r	(16.ddTLL	.
.	64cc#LL	.
.	64ddJJJJ	.
8F# 8A 8d	16ff#LL)	.
.	32r	.
.	32b'JJk	.
=85	=85	=85
*^	*	*
*	*	*tuplet	*
8A (8c#L	4E	(24cc#LL	f
.	.	24a	.
.	.	24eeJJ	.
8B 8dJ)	.	24ddLL	.
.	.	24b	.
.	.	24g#JJ)	.
2ryy	(<4E# 4B ((4d	(4g#	.
.	8F#) 8A 8c#L))	8aL)	.
.	8En 8A# 8c#J	8gnJ	.
*v	*v	*	*
=86	=86	=86
8D 8F# 8B	(8f#L	p
8r	8ff#J)	.
8E 8G#X 8B	8r	.
8r	(16eeLL	.
.	16ddJJ)	.
8E 8G# 8d	8r	.
8r	(16cc#LL	.
.	16bJJ)	.
=87	=87	=87
*^	*	*
8A (8c#L	4E	(24cc#LL	.
.	.	24a	.
.	.	24eeJJ	.
8B 8dJ)	.	24ddLL	.
.	.	24b	.
.	.	24g#XJJ)	.
2ryy	(<4E# 4B ((4d	(4g#	.
.	8F#) 8A 8c#L))	8aL)	.
.	8En 8A# 8c#J	8gnJ	.
=88	=88	=88	=88
4ryy	8D 8F# 8B	(8f#L	p
.	8r	8ff#J)	.
(16A#LL	8D	8r	.
16BJJ)	.	.	.
8ryy	8r	(16eeLL	.
.	.	16ddJJ)	.
(16c#LL	8D	8r	.
16dJJ)	.	.	.
8ryy	8r	(16cc#LL	.
.	.	16bJJ)	.
=89	=89	=89	=89
(16A# 16c#LL	8E	8r	.
16B 16dJJ)	.	.	.
8ryy	8r	(16anLL	.
.	.	16g#JJ)	.
4ryy	4r	4r	.
4ryy	4r;	4r;	.
*v	*v	*	*
=90	=90	=90
4r	(16aLL	p
.	16b	.
.	16cc#	<
.	16ddJJ	.
4C# 4A	16eeLL	.
.	16ff#	.
.	16gg#	.
.	16aaJJ	.
4D 4A	16gg#LL	.
.	16ff#	.
.	16ee	.
.	16ddJJ	.
=91	=91	=91
*^	*^	*
(8AL	4E	16cc#LL	4ryy	f
.	.	16ee	.	.
8G#J)	.	16dd)	.	.
.	.	16bJJ	.	.
2ryy	8AL	4d (4b	2e	.
.	8EJ	.	.	.
.	4AA	4c# 4a)	.	.
*	*	*v	*v	*
=92	=92	=92	=92
4r	4ryy	(16A 16c#LL	p
.	.	16c# 16e	.
.	.	16B 16d	.
.	.	16G#) 16BJJ	.
(4D [4E	2AA	(4G# 4B	.
8C#) 8E]	.	8A)	.
8r	.	8r	.
*v	*v	*	*
==	==	==
*-	*-	*-
!!!RDF**kern: > = above
!!!RDF**kern: < = below
!!!YOR: Alte Mozart-Ausgabe, Band 20, Breitkopf &amp; H&auml;rtel 1877-1883.
!!!YOY: 1878
!!!YEC: 2018 Craig Stuart Sapp
!!!YEM: Licence: (CC BY-NC-SA 4.0) https://creativecommons.org/licenses/by-nc-sa/4.0
!!!YER: 2018
!!!ENC: Craig Stuart Sapp
!!!END: 2009/09/24
!!!EED: Craig Stuart Sapp
!!!EEV: 2018/06/16
!!!EFL: 17/69
!!!AGN: piano sonata
!!!AFR: 
!!!title: @{OTL}, K 284 (205b), mvmt. @{OMV}
